X:892
T:The drunken piper
T:Highland Rory
R:March
O:Scotland
B:Scots Guards
S:My arrangement from various sources- mostly John Chambers' Scots Guards
Z:Transcription, arrangement, chords:Mike Long
M:C|
L:1/8
K:D
"Am"~A2AB e3f|edBd e2g2|"G"~G2GB d3e|"(Em)"dBGB d2e2|\
"Am"~A2AB e3f|edBd e2a2|"G"g2fd "Em"efed|"Am"B2A2 A4:|
"Am"a3g e2ag|edef g2g2|"G"~G2GB d2de|"(Em)"dBGB d2e2|\
"Am"a3g e2ag|edef g2a2|\
"G"~g2fd "Em"efed|"Am"B2A2 A2e2||
"Am"a3g e2ag|edef g2g2|"G"~G2GB d2de|\
"(Em)"dBGB d2e2|\
"Am"~A2AB e2ef|edBd e2a2|"G"~g2fd "Em"efed|"A"B2A2 A4|]
